icon-svg/air-presure.svg

<svg xmlns="http://www.w3.org/2000/svg" viewBox="0 0 24 24"><path fill="#44739e" d="M15.397 6.79c-.043-.021-.591.41-.634.389l-2.23 4.556a2 2 0 0 0-.53-.107A2.025 2.025 0 0 0 9.98 13.65a1.99 1.99 0 0 0 .901 1.641l-.889 1.942.684.314.9-1.96a2 2 0 0 0 .425.086 2.026 2.026 0 0 0 2.024-2.023 1.99 1.99 0 0 0-.82-1.581l2.231-4.56c-.04-.02.004-.698-.039-.719m-3.394 8.245a1.384 1.384 0 1 1 1.384-1.385 1.385 1.385 0 0 1-1.384 1.385m6.959-9.065-.841.742a8.826 8.826 0 0 1 .072 12.772 13 13 0 0 0-6.312-1.309 13.04 13.04 0 0 0-6.128 1.249 8.826 8.826 0 0 1 .2-12.773l-.841-.742a9.968 9.968 0 0 0 .431 14.857l.016.017a13.74 13.74 0 0 1 6.322-1.493 13.7 13.7 0 0 1 6.47 1.572 9.98 9.98 0 0 0 .605-14.892Zm-6.959-1.715a8.84 8.84 0 0 1 5.717 2.093l.841-.742a9.95 9.95 0 0 0-13.048-.062l.841.742a8.84 8.84 0 0 1 5.649-2.031"/></svg>

<?xml version="1.0" encoding="UTF-8"?>
<svg width="24px" fill="#44739e" height="24px" viewBox="0 0 24 24" version="1.1" xmlns="http://www.w3.org/2000/svg" xmlns:xlink="http://www.w3.org/1999/xlink">
            <path d="M 15.393,6.792 C 15.35,6.771 14.802,7.202 14.759,7.181 L 12.53,11.735 A 1.958,1.958 0 0 0 12,11.628 2.024,2.024 0 0 0 9.978,13.65 a 1.986,1.986 0 0 0 0.9,1.64 l -0.888,1.941 0.683,0.314 0.9,-1.959 a 1.886,1.886 0 0 0 0.425,0.086 2.025,2.025 0 0 0 2.023,-2.022 1.986,1.986 0 0 0 -0.819,-1.581 l 2.23,-4.558 C 15.392,7.491 15.436,6.813 15.393,6.792 Z M 12,15.034 A 1.384,1.384 0 1 1 13.384,13.65 1.385,1.385 0 0 1 12,15.034 Z m 6.957,-9.062 -0.841,0.742 a 8.823,8.823 0 0 1 0.072,12.768 12.973,12.973 0 0 0 -6.31,-1.309 13.036,13.036 0 0 0 -6.126,1.249 8.823,8.823 0 0 1 0.2,-12.769 L 5.111,5.911 a 9.965,9.965 0 0 0 0.431,14.852 l 0.016,0.017 a 13.741,13.741 0 0 1 6.32,-1.492 13.712,13.712 0 0 1 6.468,1.571 v 0 0 A 9.978,9.978 0 0 0 18.951,5.972 Z M 12,4.258 A 8.84,8.84 0 0 1 17.715,6.35 L 18.556,5.608 A 9.949,9.949 0 0 0 5.512,5.546 L 6.353,6.288 A 8.842,8.842 0 0 1 12,4.258 Z"/>

</svg>
